modules/hawcons-filled/icons/icon-46-two-fingers-tap.svg

<?xml version="1.0" encoding="UTF-8" standalone="no"?>
<svg width="32px" height="32px" viewBox="0 0 32 32" version="1.1" xmlns="http://www.w3.org/2000/svg" xmlns:xlink="http://www.w3.org/1999/xlink" xmlns:sketch="http://www.bohemiancoding.com/sketch/ns">
    <!-- Generator: Sketch 3.0.3 (7891) - http://www.bohemiancoding.com/sketch -->
    <title>icon 46 two fingers tap</title>
    <desc>Created with Sketch.</desc>
    <defs></defs>
    <g id="Page-1" stroke="none" stroke-width="1" fill="none" fill-rule="evenodd" sketch:type="MSPage">
        <g id="icon-46-two-fingers-tap" sketch:type="MSArtboardGroup" fill="#929292">
            <path d="M10.5,13 C8.01471863,13 6,15.0124342 6,17.495728 L6,31 L15,31 L15,17.495728 C15,15.012806 12.9802243,13 10.5,13 L10.5,13 Z M10.5,15 C9.11928813,15 8,16.1285541 8,17.5097752 L8,21 L13,21 L13,17.5097752 C13,16.1236646 11.8903379,15 10.5,15 L10.5,15 Z M8,24 L8,25 L13,25 L13,24 L8,24 L8,24 Z M8,26 L8,27 L13,27 L13,26 L8,26 L8,26 Z M21.5,10 C19.0147186,10 17,12.0135683 17,14.5050269 L17,31 L26,31 L26,14.5050269 C26,12.0169692 23.9802243,10 21.5,10 L21.5,10 Z M21.5,12 C20.1192881,12 19,13.1285541 19,14.5097752 L19,18 L24,18 L24,14.5097752 C24,13.1236646 22.8903379,12 21.5,12 L21.5,12 Z M19,21 L19,22 L24,22 L24,21 L19,21 L19,21 Z M19,23 L19,24 L24,24 L24,23 L19,23 L19,23 Z M27,19.5990687 C28.2411746,18.2609299 29,16.4690816 29,14.5 C29,10.3578642 25.6421358,7 21.5,7 C18.5038456,7 15.9180334,8.75688301 14.7165644,11.2966481 C13.5150138,10.4783403 12.0633681,10 10.5,10 C6.35786417,10 3,13.3578642 3,17.5 C3,19.4690816 3.75882544,21.2609299 5,22.5990687 L5,23.9809678 C3.16459055,22.4218311 2,20.096918 2,17.5 C2,12.8055794 5.80557939,9 10.5,9 C11.8822699,9 13.1874768,9.32994571 14.3411595,9.91537595 C15.8524545,7.56039313 18.4940025,6 21.5,6 C26.1944206,6 30,9.80557939 30,14.5 C30,17.096918 28.8354094,19.4218311 27,20.9809678 L27,19.5990687 L27,19.5990687 L27,19.5990687 Z" id="two-fingers-tap" sketch:type="MSShapeGroup"></path>
        </g>
    </g>
</svg>

<svg width="32" height="32" viewBox="0 0 32 32" xmlns="http://www.w3.org/2000/svg"><path d="M10.5 13A4.498 4.498 0 0 0 6 17.496V31h9V17.496A4.501 4.501 0 0 0 10.5 13zm0 2C9.12 15 8 16.129 8 17.51V21h5v-3.49c0-1.386-1.11-2.51-2.5-2.51zM8 24v1h5v-1H8zm0 2v1h5v-1H8zm13.5-16a4.5 4.5 0 0 0-4.5 4.505V31h9V14.505A4.506 4.506 0 0 0 21.5 10zm0 2c-1.38 0-2.5 1.129-2.5 2.51V18h5v-3.49c0-1.386-1.11-2.51-2.5-2.51zM19 21v1h5v-1h-5zm0 2v1h5v-1h-5zm8-3.4a7.5 7.5 0 1 0-12.283-8.302A7.5 7.5 0 0 0 5 22.599v1.381a8.5 8.5 0 0 1 9.341-14.066A8.5 8.5 0 1 1 27 20.981v-1.382z" fill="#929292" fill-rule="evenodd"/></svg>
